icons/1_Primary/NAVER.svg

<svg width="1024" height="1024" viewBox="0 0 1024 1024" fill="none" xmlns="http://www.w3.org/2000/svg">
<g clip-path="url(#clip0_2_2880)">
<path d="M512 1024C794.77 1024 1024 794.77 1024 512C1024 229.23 794.77 0 512 0C229.23 0 0 229.23 0 512C0 794.77 229.23 1024 512 1024Z" fill="#98DC9A"/>
<path d="M368.22 447L317.21 577H360.57L366.73 559.78H415.62L421.78 577H465.14L414.12 447H368.22ZM376.63 528.62L391.17 487.99L405.71 528.62H376.63ZM645.58 545.2H706.79V577H604.14V447H705.52V478.88H645.58V496.41H704.88V527.65H645.58V545.2ZM547.39 447H590.75L539.74 577H493.83L442.82 447H486.18L516.79 532.53L547.39 447ZM261.74 447H303.82V577H263.65L215.19 507.38V577H173.11V447H213.28L261.74 516.62V447ZM818 532.41L821.95 530.76C837.07 524.43 844.75 510.76 844.75 493.37C844.75 476.94 838.75 464.78 826.94 457.24C815.94 450.24 801.7 446.96 782.1 446.96H727.2V577H768V540.69H782.66L807.54 577H850.9L818 532.41ZM789.68 507.53H767.37V480.12H789.69C793.326 480.12 796.813 481.564 799.384 484.136C801.955 486.707 803.4 490.194 803.4 493.83C803.4 497.466 801.955 500.953 799.384 503.524C796.813 506.096 793.326 507.54 789.69 507.54" fill="white"/>
</g>
<defs>
<clipPath id="clip0_2_2880">
<rect width="1024" height="1024" fill="white"/>
</clipPath>
</defs>
</svg>

<svg xmlns="http://www.w3.org/2000/svg" viewBox="0 0 1024 1024">
   <circle cx="512" cy="512" r="512" style="fill:#03cf5d"/>
   <path d="m368.22 447-51.01 130h43.36l6.16-17.22h48.89l6.16 17.22h43.36l-51.02-130Zm8.41 81.62 14.54-40.63 14.54 40.63Zm268.95 16.58h61.21V577H604.14V447h101.38v31.88h-59.94v17.53h59.3v31.24h-59.3ZM547.39 447h43.36l-51.01 130h-45.91l-51.01-130h43.36l30.61 85.53Zm-285.65 0h42.08v130h-40.17l-48.46-69.62V577h-42.08V447h40.17l48.46 69.62ZM818 532.41l3.95-1.65c15.12-6.33 22.8-20 22.8-37.39 0-16.43-6-28.59-17.81-36.13-11-7-25.24-10.28-44.84-10.28h-54.9V577H768v-36.31h14.66L807.54 577h43.36Zm-28.32-24.88h-22.31v-27.41h22.32a13.71 13.71 0 0 1 0 27.42" style="fill:#fff"/>
</svg>
